assets/icons/interface.svg

<svg width="20" height="20" viewBox="0 0 20 20" fill="none" xmlns="http://www.w3.org/2000/svg">
<path d="M2.39175 16.5948C5.31675 13.8823 11.7543 10.7573 17.7084 9.34895M8.1243 12.8673C7.74847 12.4924 7.47064 12.0308 7.3153 11.5232C7.15996 11.0156 7.13189 10.4776 7.23355 9.9566C7.33522 9.43559 7.5635 8.9476 7.89827 8.53563C8.23304 8.12367 8.66402 7.8004 9.15322 7.59431C9.64241 7.38822 10.1748 7.30564 10.7034 7.35386C11.2321 7.40209 11.7407 7.57962 12.1846 7.87082C12.6284 8.16202 12.9938 8.55794 13.2485 9.02367C13.5032 9.48941 13.6394 10.0107 13.6451 10.5415M3.95832 2.29166H16.0417C16.9621 2.29166 17.7083 3.03785 17.7083 3.95832V16.0417C17.7083 16.9621 16.9621 17.7083 16.0417 17.7083H3.95832C3.03785 17.7083 2.29166 16.9621 2.29166 16.0417V3.95832C2.29166 3.03785 3.03785 2.29166 3.95832 2.29166Z" stroke="currentColor" stroke-width="1.3" stroke-linecap="round" stroke-linejoin="round"/>
</svg>

<svg xmlns="http://www.w3.org/2000/svg" width="20" height="20" fill="none" viewBox="0 0 20 20"><path stroke="currentColor" stroke-linecap="round" stroke-linejoin="round" stroke-width="1.3" d="M2.392 16.595c2.925-2.713 9.362-5.838 15.316-7.246m-9.584 3.518a3.236 3.236 0 1 1 5.521-2.326m-9.687-8.25h12.084c.92 0 1.666.747 1.666 1.667v12.084c0 .92-.746 1.666-1.666 1.666H3.958c-.92 0-1.666-.746-1.666-1.666V3.958c0-.92.746-1.666 1.666-1.666"/></svg>
